resources/images/pocket-casts.svg

<svg height="26" width="26" xmlns="http://www.w3.org/2000/svg"><g fill-rule="evenodd"><path d="m9.21.5h7.57c2.51 0 3.77 0 5.11.42 1.49.54 2.64 1.7 3.18 3.18.43 1.35.43 2.6.43 5.11v7.57c0 2.51 0 3.77-.43 5.11-.54 1.49-1.7 2.64-3.18 3.18-1.34.43-2.6.43-5.11.43h-7.57c-2.51 0-3.76 0-5.11-.43-1.48-.54-2.64-1.69-3.18-3.18-.42-1.34-.42-2.6-.42-5.11v-7.57c0-2.51 0-3.76.42-5.11.54-1.48 1.7-2.64 3.18-3.18 1.35-.42 2.6-.42 5.11-.42zm0 0" fill="#f43e37"/><path d="m2.89 12.89c0-5.52 4.48-10 10-10s10 4.48 10 10h-2.5c0-4.14-3.36-7.5-7.5-7.5s-7.5 3.36-7.5 7.5 3.36 7.5 7.5 7.5v2.5c-5.52 0-10-4.48-10-10zm10 6c-3.31 0-6-2.69-6-6s2.69-6 6-6 6 2.69 6 6h-2.18c0-2.11-1.71-3.82-3.82-3.82s-3.82 1.71-3.82 3.82 1.71 3.82 3.82 3.82zm0 0" fill="#fff"/></g></svg>

<?xml version="1.0" encoding="UTF-8"?>
<!DOCTYPE svg PUBLIC "-//W3C//DTD SVG 1.1//EN" "http://www.w3.org/Graphics/SVG/1.1/DTD/svg11.dtd">
<svg version="1.1" xmlns="http://www.w3.org/2000/svg" xmlns:xlink="http://www.w3.org/1999/xlink" width="26" height="26"  xml:space="preserve" id="badgepocketcasts">
    <!-- Generated by PaintCode - http://www.paintcodeapp.com -->
    <path id="badgepocketcasts-bezier" fill-rule="evenodd" stroke="none" fill="rgb(244, 62, 55)" d="M 9.21,0.5 L 16.78,0.5 C 19.29,0.5 20.55,0.5 21.89,0.92 23.38,1.46 24.53,2.62 25.07,4.1 25.5,5.45 25.5,6.7 25.5,9.21 L 25.5,16.78 C 25.5,19.29 25.5,20.55 25.07,21.89 24.53,23.38 23.37,24.53 21.89,25.07 20.55,25.5 19.29,25.5 16.78,25.5 L 9.21,25.5 C 6.7,25.5 5.45,25.5 4.1,25.07 2.62,24.53 1.46,23.38 0.92,21.89 0.5,20.55 0.5,19.29 0.5,16.78 L 0.5,9.21 C 0.5,6.7 0.5,5.45 0.92,4.1 1.46,2.62 2.62,1.46 4.1,0.92 5.45,0.5 6.7,0.5 9.21,0.5 Z M 9.21,0.5" />
    <path id="badgepocketcasts-bezier2" fill-rule="evenodd" stroke="none" fill="rgb(255, 255, 255)" d="M 2.89,12.89 C 2.89,7.37 7.37,2.89 12.89,2.89 18.41,2.89 22.89,7.37 22.89,12.89 L 20.39,12.89 C 20.39,8.75 17.03,5.39 12.89,5.39 8.75,5.39 5.39,8.75 5.39,12.89 5.39,17.03 8.75,20.39 12.89,20.39 L 12.89,22.89 C 7.37,22.89 2.89,18.41 2.89,12.89 Z M 12.89,18.89 C 9.58,18.89 6.89,16.2 6.89,12.89 6.89,9.58 9.58,6.89 12.89,6.89 16.2,6.89 18.89,9.58 18.89,12.89 L 16.71,12.89 C 16.71,10.78 15,9.07 12.89,9.07 10.78,9.07 9.07,10.78 9.07,12.89 9.07,15 10.78,16.71 12.89,16.71 L 12.89,18.89 Z M 12.89,18.89" />
</svg>
